X:2444
T:Tanz
C:Georg Fuhrman
O:Germany
Z:Transcribed by Frank Nordberg - http://www.musicaviva.com
F:http://abc.musicaviva.com/tunes/fuhrman-georg/fuhrmann-tanz/fuhrmann-tanz-1.abc
M:3/4
L:1/4
Q:1/4=216
K:F
F2E|D2C|F2G|A3|c3|A3|c3|A3:|
|:c2B|A2G|F2E|D2C|F2G|A2G|F3|F3:|
W:
W:
W:  From Musica Viva - http://www.musicaviva.com
W:  the Internet center for free sheet music downloads.

